X:1
T:Title
%%score 1 { 2 | 3 }
L:1/8
M:4/4
K:Bb
V:1 treble nm="Grand Piano, Soprano"
V:2 bass nm="Choir Pad, Shenzhen, W. F. Sherwin"
V:3 bass 
V:1
 [Fd]2 [Ec]2 [Fd]2 [Ec]2 | [DB]2 [CA]2 [EG]2 [DF]2 | [FA]2 [EG]2 [GB]2 [Ge]2 | [EG]2 [DF]4 z2 | %4
w: By~William~Fiske~Sherwin,~1881 * * *||||
 [Fd]2 [Ec]2 [Fd]2 [Ec]2 | [DB]2 [CA]2 [EG]2 [DF]2 | [FB]2 [FA]2 [Fc]2 [=EB]2 | [=EG]2 F4 z2 | %8
w: ||||
 F2 [Ec]2 [D=B]2 [Ec]2 | [DB]2 [EB]2 [EA]4 | [DB]2 [Fc]2 [F=B]2 [Fc]2 | [Fd]2 [Fe]6 | %12
w: ||||
 [Fc]2 [Ff]2 [Fd]2 [DB]2 | [DB]2 [Ge]2 [Ge]4 | [Gc]2 [FB]2 [DF]2 [Ec]2 | [EA]2 [DB]4 z2 | %16
w: ||||
 [Fd]2 [Ec]2 [Fd]2 [Ec]2 | [DB]2 [CA]2 [EG]2 [DF]2 | [FB]2 [EG]2 [GB]2 [Ge]2 | [EG]2 [DF]4 z2 | %20
w: ||||
 [Fd]2 [Ff]2 [Fd]2 [DB]2 | [DB]2 [Ge]2 [Ge]4 | [Gc]2 [FB]2 [DF]2 [Ec]2 | [EA]2 [DB]6- | %24
w: ||||
 [DB]2 z2 z4 |] %25
w: |
V:2
 F,2 F,2 F,2 F,2 | F,2 F,2 G,A, B,2 | B,2 B,2 B,2 B,2 | B,2 B,4 z2 | F,2 F,2 F,2 F,2 | %5
 F,2 F,2 G,A, B,2 | D2 C2 A,2 G,2 | B,2 A,4 z2 | F,2 A,2 _A,2 =A,2 | B,2 C2 C4 | %10
 B,2 A,2 _A,2 =A,2 | B,2 C6 | A,2 B,2 B,2 B,2 | B,2 B,2 B,4 | E2 D2 B,2 A,2 | C2 B,4 z2 | %16
 F,2 F,2 F,2 F,2 | F,2 F,2 G,A, B,2 | B,2 B,2 B,2 B,2 | B,2 B,4 z2 | B,2 B,2 B,2 B,2 | %21
 B,2 B,2 B,4 | E2 D2 B,2 A,2 | C2 B,6- | B,2 z2 z4 |] %25
V:3
 B,,2 B,,2 B,,2 B,,2 | B,,2 B,,4 B,,2 | D,2 D,2 D,2 D,2 | D,2 B,,4 z2 | B,,2 B,,2 B,,2 B,,2 | %5
 B,,2 B,,4 B,,2 | B,,2 C,2 C,2 C,2 | C,2 F,4 z2 | z2 F,2 F,2 F,2 | F,2 F,2 F,4 | F,2 F,2 F,2 F,2 | %11
 F,2 F,6 | E,2 F,2 F,2 G,2 | G,2 E,2 E,4 | E,2 F,2 F,2 F,2 | F,2 B,,4 z2 | B,,2 B,,2 B,,2 B,,2 | %17
 B,,2 B,,4 B,,2 | D,2 E,2 E,2 E,2 | E,2 B,,4 z2 | B,,2 D,2 D,2 G,2 | G,2 E,2 E,4 | %22
 E,2 F,2 F,2 F,2 | F,2 B,,6- | B,,2 z2 z4 |] %25

